style-guide/assets/xd-icons-fandom.svg

<?xml version="1.0" encoding="UTF-8"?>
<svg width="24px" height="24px" viewBox="0 0 24 24" version="1.1" xmlns="http://www.w3.org/2000/svg" xmlns:xlink="http://www.w3.org/1999/xlink">
    <!-- Generator: Sketch 51.3 (57544) - http://www.bohemiancoding.com/sketch -->
    <title>fandom</title>
    <desc>Created with Sketch.</desc>
    <defs></defs>
    <g id="fandom" stroke="none" stroke-width="1" fill="none" fill-rule="evenodd">
        <path d="M21.3417,11.3737281 C21.3417,11.5566448 21.2689601,11.7321383 21.1393302,11.8621128 L12.6307427,20.401351 C12.4872441,20.5432305 12.3423304,20.6069572 12.1617543,20.6069572 C11.9758005,20.6069572 11.8113574,20.5374881 11.6728119,20.4003706 L11.0727785,19.8362142 C10.9648008,19.7345316 10.962112,19.5650606 11.0668348,19.4601566 L20.8864388,9.624255 C21.0535707,9.45674481 21.3417,9.57397393 21.3417,9.80927253 L21.3417,11.3737281 Z M10.4301483,17.8130664 L9.94347026,18.2483689 C9.78454631,18.3905284 9.54127803,18.3852062 9.38900539,18.2361838 L2.91331421,11.9069315 C2.75014473,11.7474047 2.65829999,11.5297535 2.65829999,11.3028584 L2.65829999,10.1203429 C2.65829999,9.69442441 3.17738553,9.47971444 3.48377054,9.77901986 L10.3574084,16.4984756 C10.4769906,16.6168252 10.6787943,16.8606674 10.6787943,17.1553508 C10.6787943,17.3431695 10.6356315,17.6095612 10.4301483,17.8130664 L10.4301483,17.8130664 Z M4.64279741,5.56423369 L6.86985552,3.36013008 C6.97372924,3.257327 7.14213485,3.257327 7.24600857,3.36013008 L14.7059527,10.7430438 C15.5046765,11.5335351 15.5046765,12.8152121 14.7059527,13.6057034 L12.4797437,15.8088266 C12.3760115,15.9116297 12.2074644,15.9116297 12.1035907,15.8088266 L4.64378803,8.42563273 C4.25971002,8.04565351 4.04828314,7.53724046 4.04828314,6.99437298 C4.04828314,6.45220579 4.25942698,5.94421292 4.64279741,5.56423369 L4.64279741,5.56423369 Z M13.4697989,6.82644261 L15.7976174,4.52275727 C16.2517465,4.07400923 16.8833383,3.86266066 17.5374313,3.95215817 C17.9962305,4.0147644 18.412999,4.25076329 18.7404701,4.57471904 L21.0974411,6.90753659 C21.2013148,7.01047973 21.2013148,7.17714957 21.0974411,7.27995265 L17.5128073,10.8277793 C17.4087921,10.9305824 17.240528,10.9305824 17.1365128,10.8277793 L13.4697989,7.19871861 C13.3659252,7.09605559 13.3659252,6.92938574 13.4697989,6.82644261 L13.4697989,6.82644261 Z M22.726447,6.38903932 L17.5347425,1.16232911 C17.3203438,0.946498673 16.9690978,0.94579838 16.7538499,1.16078847 L12.6364034,5.27515255 C12.318414,5.59294572 11.7998945,5.59420625 11.4800654,5.27823385 L7.36134519,1.20686778 C7.1482201,0.996219508 6.80320086,0.99495898 6.5886606,1.20434672 L1.2843083,6.37657409 C1.10231702,6.55402846 1,6.79604987 1,7.04885581 L1,11.9472684 C1,12.1975533 1.1004773,12.437754 1.2793552,12.6146481 L11.6169126,22.8410334 C11.8311698,23.0530822 12.1784533,23.0529422 12.3927106,22.8408933 L22.7209278,12.614368 C22.8995227,12.4374739 23,12.1974133 23,11.9472684 L23,7.05067657 C23,6.80319286 22.9016455,6.56551327 22.726447,6.38903932 L22.726447,6.38903932 Z" id="Heart" fill="#000000"></path>
    </g>
</svg>

<svg viewBox="0 0 24 24" xmlns="http://www.w3.org/2000/svg">
  <path d="M21.342 11.374a.692.692 0 0 1-.203.488l-8.508 8.54a.63.63 0 0 1-.47.205.676.676 0 0 1-.488-.207l-.6-.564a.262.262 0 0 1-.006-.376l9.82-9.836c.167-.167.455-.05.455.185v1.565zm-10.912 6.44l-.487.434a.407.407 0 0 1-.554-.012l-6.476-6.33a.845.845 0 0 1-.255-.603V10.12c0-.426.52-.64.826-.341l6.873 6.72c.12.118.322.362.322.656 0 .188-.043.455-.249.658zM4.643 5.563L6.87 3.36a.268.268 0 0 1 .376 0l7.46 7.383a2.01 2.01 0 0 1 0 2.863l-2.226 2.203a.268.268 0 0 1-.376 0l-7.46-7.383a1.998 1.998 0 0 1-.596-1.432c0-.542.211-1.05.595-1.43zm8.827 1.262l2.328-2.303a2.055 2.055 0 0 1 1.74-.57c.458.062.875.298 1.202.622l2.357 2.333a.261.261 0 0 1 0 .372l-3.584 3.548a.268.268 0 0 1-.376 0l-3.667-3.63a.261.261 0 0 1 0-.372zm9.256-.437l-5.191-5.227a.553.553 0 0 0-.781-.001l-4.118 4.114a.822.822 0 0 1-1.156.003L7.361 1.207a.553.553 0 0 0-.772-.003L1.284 6.377A.939.939 0 0 0 1 7.049v4.898c0 .25.1.49.28.668L11.616 22.84a.553.553 0 0 0 .776 0L22.72 12.614a.94.94 0 0 0 .279-.667V7.051a.94.94 0 0 0-.274-.662z"/>
</svg>
